icons/ArrowDownLeft_filled.svg

<svg width="24" height="24" viewBox="0 0 24 24" fill="none" xmlns="http://www.w3.org/2000/svg">
<path fill-rule="evenodd" clip-rule="evenodd" d="M5.40033,19.8496c-0.69036,0 -1.25,-0.5597 -1.25,-1.25v-11.31376c0,-0.69035 0.55964,-1.25 1.25,-1.25c0.69035,0 1.25,0.55965 1.25,1.25v8.29596l11.06547,-11.06546c0.4881,-0.48815 1.2796,-0.48815 1.7677,0c0.4882,0.48816 0.4882,1.27961 0,1.76777l-11.0654,11.06549h8.2959c0.6904,0 1.25,0.5596 1.25,1.25c0,0.6903 -0.5596,1.25 -1.25,1.25z" fill="#002B51"/>
</svg>

<svg width="24" height="24" viewBox="0 0 24 24" fill="none" xmlns="http://www.w3.org/2000/svg">
<path fill-rule="evenodd" clip-rule="evenodd" d="M5.40033 19.8496C4.70997 19.8496 4.15033 19.2899 4.15033 18.5996L4.15033 7.28584C4.15033 6.59549 4.70997 6.03584 5.40033 6.03584C6.09068 6.03584 6.65033 6.59549 6.65033 7.28584V15.5818L17.7158 4.51634C18.2039 4.02819 18.9954 4.02819 19.4835 4.51634C19.9717 5.0045 19.9717 5.79595 19.4835 6.28411L8.4181 17.3496H16.714C17.4044 17.3496 17.964 17.9092 17.964 18.5996C17.964 19.2899 17.4044 19.8496 16.714 19.8496H5.40033Z" fill="#002B51"/>
</svg>
